src/16/panel/clementine-panel.svg

<svg xmlns="http://www.w3.org/2000/svg" width="16" height="16" version="1.1">
 <defs>
  <style id="current-color-scheme" type="text/css">
   .ColorScheme-Text { color:#dfdfdf; } .ColorScheme-Highlight { color:#4285f4; }
  </style>
 </defs>
 <path style="fill:currentColor" class="ColorScheme-Text" d="M 4.4966766,1.0009942 C 1.9221518,0.91027681 -1.5026166,7.0439106 3.758139,12.265935 c 5.2452122,5.205919 11.411907,1.84308 11.238276,-0.774464 A 7.5026047,7.5099607 0 0 1 10.504622,12.997374 7.5026047,7.5099607 0 0 1 3.002017,5.4874135 7.5026047,7.5099607 0 0 1 4.4966766,1.0009942 Z"/>
 <path style="fill:currentColor;opacity:0.3" class="ColorScheme-Text" d="M 5.0378801,1.1085588 C 4.0783402,2.3079161 3.5021907,3.8279285 3.5021907,5.4874135 c 0,3.8770579 3.1291708,7.0092965 7.0024313,7.0092965 1.653362,0 3.168117,-0.573592 4.364796,-1.529372 C 14.761335,10.718977 14.589664,10.484022 14.33603,10.273058 13.283943,9.3966147 11.343016,8.7680633 9.3128018,6.7527637 7.1706396,4.6261894 6.5604352,2.611563 5.6630971,1.5720643 5.4737131,1.3526998 5.2617741,1.2045863 5.0378801,1.1085588 Z"/>
</svg>

<svg xmlns="http://www.w3.org/2000/svg" width="16" height="16"><defs><style id="current-color-scheme" type="text/css">.ColorScheme-Text{color:#bebebe}</style></defs><path class="ColorScheme-Text" d="M4.497 1.001c-2.575-.09-6 6.043-.739 11.265 5.245 5.206 11.412 1.843 11.238-.775a7.503 7.51 0 0 1-4.491 1.506 7.503 7.51 0 0 1-7.503-7.51 7.503 7.51 0 0 1 1.495-4.486z" fill="currentColor"/><path class="ColorScheme-Text" d="M5.038 1.109a6.982 6.982 0 0 0-1.536 4.378c0 3.877 3.13 7.01 7.003 7.01a6.966 6.966 0 0 0 4.364-1.53 1.87 1.87 0 0 0-.533-.694c-1.052-.876-2.993-1.505-5.023-3.52-2.142-2.127-2.753-4.141-3.65-5.18a1.707 1.707 0 0 0-.625-.464z" fill="currentColor" opacity=".3"/></svg>
